X:1
T:Ab omnibus iniquitatibus
T:Constantijn Huygens
T:Ab omnibus iniquitatibus
T:Psalmus 39:9-11
C:Constantijn Huygens
%%score 1 { ( 2 5 ) | ( 3 4 ) }
L:1/8
Q:1/4=72
M:4/4
K:F
V:1 treble nm="Voice" snm="V"
V:2 treble nm="Organ" snm="Org."
V:5 treble 
V:3 bass 
V:4 bass 
V:1
 z2 D2 D3 D | DDDE F2 FG | A6 D2 | D2 ^C=B, C4 | z2 F4 GA | !fermata!A4 A2 c2- | cc=BA G2 E2 | %7
w: Ab om- ni-|bus i- ni- qui- ta- ti- bus|me- is|e- ru- e me,|e- ru- e|me; op- pro-|* bri- um de- dis- ti,|
 E2 G>A =B>c de | c2 A2 z =B^GA | A8 :: E4 E3 E | E2 z2 z EEE | F4- FEEE | E4 ^CEEF | G2 c3 A G2 | %15
w: op- pro- bri- um in- si- pi-|en- ti de- dis- ti|me.|Ob- mu- tu-|i, et non a-|pe- * ru- i os|me- um, quo- ni- am|tu, tu fe- ci-|
 FFFG A4 | d2 z2 e>c =B2 | A8 | A6 A2 | A4 z2 c2- | ccBB A2 A2- | A2 F2 B4- | BAAG G2 c2- | %23
w: sti, quo- ni- am tu,|tu, tu fe- ci-|sti.|A- mo-|ve, a-|* mo- ve a me pla-|* gas, a-|* mo- ve a me pla-|
 c2 B2 d4- | ddcB A2 A2- | AAGF E2 F2- | F2 E2 E4 | D8 :| %28
w: * gas, a-|* mo- ve a me, a-|* mo- ve a me pla-|* gas tu-|as.|
V:2
 z4 A,4- | A,4 [A,DF]4 | [DFA]4 [DF]4 | A,8 | A,6 D2 | E8 | [EA]2 [FG]2 [EG]4 | %7
 A,2 [=B,D]4 [EG=B]2 | E2 F2 G2 ^G2 | [A,^CEA]8 :: A,4 [G,=B,]4 | [A,C]4 z4 | D4 =B,4 | %13
 C4 [A,^C]4 | D2 [CE]2 [CF]2 [EG]2 | D4 F2 ^F2 | G2 ^G2 A2 G2 | [^CEA]8 | [CF]8- | [CF]8 | F8- | %21
 F8 | G8- | G8 | F8- | F4 C2 F2 | ^C2 D2 D2 C2 | [F,A,D]8 :| %28
V:3
 D,4 D,4- | D,4 D,4 | D,4 B,,4 | F,2 E,D, E,4 | D,4 B,,4 | A,,8 | A,,2 =B,,2 C,4- | %7
 C,2 G,,2 G,2 E,2 | A,2 F,2 D,2 E,2 | A,,8 :: A,,4 E,,4 | A,,8 | D,4 G,,4 | G,,4 [A,,E,]4 | %14
 E,4 F,2 C,2 | D,6 =B,,2- | B,,2 E,,6 | A,,8 | F,,8 | F,,8 | F,,4 F,4 | D,8 | E,2 F,2 C,4 | G,,8 | %24
 D,4 D,D,C,B,, | A,,8 | A,,2 G,,2 A,,4 | D,,8 :| %28
V:4
 x8 | x8 | x8 | A,,8 | x8 | x8 | x8 | x8 | x8 | x8 :: x8 | x8 | x8 | x8 | x8 | x8 | x8 | x8 | x8 | %19
 x8 | x8 | x8 | x8 | x8 | x8 | x8 | x8 | x8 :| %28
V:5
 x8 | x8 | x8 | x8 | x8 | ^C4 =C4 | x8 | x8 | C2 D2 [=B,E]4 | x8 :: x8 | x8 | x8 | x8 | x8 | %15
 A,4 D4 | D2 E2 =B,4 | x8 | x8 | x8 | A,2 [B,D]2 [A,C]4 | D4 B,4 | C4 E4 | D4 B,4- | B,4 A,4 | %25
 C4 A,2 C2 | A,8 | x8 :| %28

